packages/foundations/assets/icons/functional/images/maps/map_32.svg

<svg width="32" height="32" viewBox="0 0 32 32" fill="none" xmlns="http://www.w3.org/2000/svg">
<g clip-path="url(#clip0_186_68)">
<path fill-rule="evenodd" clip-rule="evenodd" d="M29.1875 4.5C29.6562 4.5 30 4.8438 30 5.375V22.5C30 22.8438 29.8487 23.1978 29.5312 23.3438L20.9688 27.2812C20.7525 27.3807 20.5625 27.4375 20.3438 27.4375C20.1562 27.4375 19.9352 27.3802 19.7188 27.2812L11.6562 23.5938L3.5625 27.3125C3.372 27.4 3.0312 27.5 2.8438 27.5C2.5312 27.5 2 27.1562 2 26.4688V9.5C2 9.1562 2.1518 8.8033 2.4688 8.6562L10.75 4.8125C11.0925 4.6535 11.375 4.5938 11.6875 4.5938C12 4.5938 12.3457 4.6521 12.6875 4.8125L20.3438 8.4062L28.2812 4.7188C28.4465 4.642 28.8125 4.5 29.1875 4.5ZM10.6562 7.0625L4 10.125V24.9375L10.6562 21.8438V7.0625ZM12.6562 7.0625V21.8438L19.3438 24.9375V10.1562L12.6562 7.0625ZM28 7.0625L21.3438 10.125V24.9375L28 21.8438V7.0625Z" fill="#1A1C1F"/>
</g>
<defs>
<clipPath id="clip0_186_68">
<rect width="32" height="32" fill="white"/>
</clipPath>
</defs>
</svg>

<svg xmlns="http://www.w3.org/2000/svg" width="32" height="32" fill="none"><g clip-path="url(#a)"><path fill="#1A1C1F" fill-rule="evenodd" d="M29.188 4.5c.468 0 .812.344.812.875V22.5c0 .344-.151.698-.469.844L20.97 27.28c-.216.1-.407.157-.625.157-.188 0-.409-.058-.625-.157l-8.063-3.687-8.094 3.718c-.19.088-.53.188-.718.188-.313 0-.844-.344-.844-1.031V9.5c0-.344.152-.697.469-.844l8.281-3.844a2.1 2.1 0 0 1 .938-.218c.312 0 .658.058 1 .218l7.656 3.594L28.28 4.72c.166-.077.532-.219.907-.219M10.656 7.063 4 10.125v14.813l6.656-3.094zm2 0v14.78l6.688 3.095V10.156zm15.344 0-6.656 3.062v14.813L28 21.844z" clip-rule="evenodd"/></g><defs><clipPath id="a"><path fill="#fff" d="M0 0h32v32H0z"/></clipPath></defs></svg>
